!!!OTL: Die Ammen - Uhr.
!!!OTL-incipit:DER MOND DER SCHEINT DAS KINDLEIN WEINT
!!!ARE: Europa, Mitteleuropa, Deutschland, Rhein
!!!SCT: Z1358
!!!TXL: @@DE
!!!YEM: Copyright 1995, estate of Helmut Schaffrath.
**kern	**text
*ICvox	*
*M6/8	*
*k[f#c#g#]	*
*A:	*
!LO:TX:a:t=Vom Rheine.	!
{8ee	Der
=1	=1
4ee	Mond
8cc#	der
4cc#	ſcheint,
8a	das
=2	=2
8bL	Kind-
8cc#J	.
8b	-lein
4a}	weint,
{8ee	der
=3	=3
4ee	Mond
8cc#	der
4cc#	ſcheint,
8a	das
=4	=4
8bL	Kind-
8cc#J	.
8b	-lein
4a}	weint,
{8cc#	die
=5	=5
4b	Glock'
8dd	ſchlägt
4dd	ʒwölf,
8b	die
=6	=6
8a/L	Glock'
8cc#J	.
8ee	ſchlägt
4ee}	ʒwölf,
{8cc#	daß
=7	=7
4b	Gott
8dd	doch
4dd	al-
8b	-len
=8	=8
8a/L	Kran-
8cc#J	.
8b	-ken
4a}	helf!
==	==
!!!AGN: Kinder - Lied
!!!ONB: ESAC (Essen Associative Code) Database: ZUCCAL
!!!AMT: compound duple
!!!AIN: vox
!!!EED: Helmut Schaffrath
!!!EEV: 1.0
!!!GTL: IX. Kinder- Lieder.
!!!URL-scan: https://www.digitale-sammlungen.de/de/view/bsb11160573?page=657
!!!ENC: Anna Maria Matuszewska
!!!EEV: 2025/02/07
*-	*-
